remix/Media/skip-back-mini-line.svg

<svg viewBox="0 0 24 24" fill="currentColor" xmlns="http://www.w3.org/2000/svg"><path d="M7 6C7.55228 6 8 6.44772 8 7V17C8 17.5523 7.55228 18 7 18C6.44772 18 6 17.5523 6 17V7C6 6.44772 6.44772 6 7 6ZM15 14.1402V9.85984L11.9681 12L15 14.1402ZM9.07869 12.4085C9.03208 12.3756 8.99144 12.3349 8.95854 12.2883C8.7993 12.0627 8.85309 11.7508 9.07869 11.5915L16.2117 6.55648C16.296 6.49693 16.3967 6.46496 16.5 6.46496C16.7761 6.46496 17 6.68882 17 6.96496V17.035C17 17.1383 16.968 17.239 16.9085 17.3234C16.7492 17.549 16.4373 17.6028 16.2117 17.4435L9.07869 12.4085Z"/></svg>

<svg viewBox="0 0 24 24" xmlns="http://www.w3.org/2000/svg"><path fill="none" d="M0 0h24v24H0Z"/><path d="M7 6v0c.55 0 1 .44 1 1v10 0c0 .55-.45 1-1 1 -.56 0-1-.45-1-1V7v0c0-.56.44-1 1-1Zm8 8.14V9.86L11.968 12 15 14.14ZM9.07 12.4v0c-.23-.16-.28-.48-.12-.7 .03-.05.07-.09.11-.12l7.13-5.04v0c.22-.16.53-.11.69.12 .05.08.09.18.09.28v10.07 0c0 .27-.23.5-.5.5 -.11 0-.21-.04-.29-.1l-7.14-5.04Z"/></svg>
